icons/scales-2-line.svg

<svg viewBox="0 0 24 24" fill="currentColor" xmlns="http://www.w3.org/2000/svg">
    <path d="M5.99805 2C5.99805 2.51284 6.48805 3 6.99805 3H16.998C17.5109 3 17.998 2.51 17.998 2H19.998C19.998 3.65685 18.6549 5 16.998 5H12.998L12.999 7.06201C16.9449 7.55453 19.998 10.9207 19.998 15V21C19.998 21.5523 19.5503 22 18.998 22H4.99805C4.44576 22 3.99805 21.5523 3.99805 21V15C3.99805 10.9204 7.05176 7.55396 10.9981 7.06189L10.998 5H6.99805C5.33805 5 3.99805 3.66 3.99805 2H5.99805ZM11.998 9C8.75965 9 5.99805 11.76 5.99805 15V20H17.998V15C17.998 11.7616 15.2364 9 11.998 9ZM11.998 11C12.7399 11 13.4345 11.2019 14.03 11.5538L11.2909 14.2929C10.9004 14.6834 10.9004 15.3166 11.2909 15.7071C11.6514 16.0676 12.2187 16.0953 12.6109 15.7903L12.7052 15.7071L15.4442 12.968C15.7961 13.5635 15.998 14.2582 15.998 15C15.998 17.2091 14.2072 19 11.998 19C9.78891 19 7.99805 17.2091 7.99805 15C7.99805 12.7909 9.78891 11 11.998 11Z"/>
</svg>

<svg xmlns="http://www.w3.org/2000/svg" viewBox="0 0 24 24">
    <g>
        <path fill="none" d="M0 0H24V24H0z"/>
        <path d="M6 2c0 .513.49 1 1 1h10c.513 0 1-.49 1-1h2c0 1.657-1.343 3-3 3h-4l.001 2.062C16.947 7.555 20 10.921 20 15v6c0 .552-.448 1-1 1H5c-.552 0-1-.448-1-1v-6c0-4.08 3.054-7.446 7-7.938V5H7C5.34 5 4 3.66 4 2h2zm6 7c-3.238 0-6 2.76-6 6v5h12v-5c0-3.238-2.762-6-6-6zm0 2c.742 0 1.436.202 2.032.554l-2.74 2.739c-.39.39-.39 1.024 0 1.414.361.36.929.388 1.32.083l.095-.083 2.74-2.739c.351.596.553 1.29.553 2.032 0 2.21-1.79 4-4 4s-4-1.79-4-4 1.79-4 4-4z"/>
    </g>
</svg>
